X: 27
T:Earl of Angus & Arran
M:C
L:1/8
C:John Drewry
S:Book 23
R:Strathspey
K:A
E|A<AAA B>GE>G|A<Ac>A [G3B3] c| A<AA>A G>AB>c|!
F>B A/G/F/E/ A2 A:||f/g/|a>e a/g/f/b/ a<f e>c|A<A c>e f<B Bf/g/|!
a>e a/g/f/b/ a<f e>c|E>E EF/G/ A2-Af/g/|a>e a/g/f/b/ a<f e>c|!
A<AA>A fee<a d>ffE EF/G/ A2 A||!
% <A name="D1X028">
